X: 20732
M: 2/4
L: 1/16
K: F
|:\
f2cB A2f2 | c2a2 B2g2 | f2cB A2F2 | EGce "^>"g4 |\
f2cB A2f2 | .c2.a2 .B2.g2 | f2cA G2e2 | f4 z4 :|
|:\
c2f2 a4 | a2ba g2f2 | e2ef .g2.e2 | f4 z4 :|


